app/dist/common/images/ufp-technologies.svg

<svg height="18" viewBox="0 0 18 18" width="18" xmlns="http://www.w3.org/2000/svg"><path d="m0 0h18v18h-18z" fill="#f0f3fa"/><path d="m11.59 5c0 .45-.32 1-.72 1h-3.8c-.39 0-.71-.55-.71-1h-2.36v2h10v-2zm0 2.5c0 .45-.32.5-.72.5h-3.8c-.39 0-.71-.05-.71-.5h-2.36v1.5h10v-1.5zm.01 2c0 .45-.32.5-.72.5h-3.8c-.4 0-.72-.05-.72-.5h-2.36v1.5h10v-1.5zm.02 2c0 .38-.33.52-.72.52h-3.81c-.4 0-.72-.14-.72-.52h-2.37c.1 1.54 1.42 2.5 3.05 2.5h3.9c1.63 0 2.96-.96 3.05-2.5z" fill="#005baa"/></svg>

<!-- by TradingView --><svg width="18" height="18" viewBox="0 0 18 18" xmlns="http://www.w3.org/2000/svg"><path fill="#F0F3FA" d="M0 0h18v18H0z"/><path d="M11.59 5c0 .45-.32 1-.72 1h-3.8c-.39 0-.71-.55-.71-1H4v2h10V5h-2.41ZM11.59 7.5c0 .45-.32.5-.72.5h-3.8c-.39 0-.71-.05-.71-.5H4V9h10V7.5h-2.41ZM11.6 9.5c0 .45-.32.5-.72.5h-3.8c-.4 0-.72-.05-.72-.5H4V11h10V9.5h-2.4ZM11.62 11.5c0 .38-.33.52-.72.52H7.09c-.4 0-.72-.14-.72-.52H4c.1 1.54 1.42 2.5 3.05 2.5h3.9c1.63 0 2.96-.96 3.05-2.5h-2.38Z" fill="#005BAA"/></svg>
